storage/app/icons/phosphoricons/duotone/synagogue-duotone.svg

<svg xmlns="http://www.w3.org/2000/svg" fill="currentColor" viewBox="0 0 256 256"><path d="M216 80v32h-32V80a16 16 0 0 1 16-16 16 16 0 0 1 16 16M72 80a16 16 0 0 0-16-16 16 16 0 0 0-16 16v32h32Zm0 56v80h40v-40a16 16 0 0 1 16-16 16 16 0 0 1 16 16v40h40v-80l-56-32Z" opacity=".2"/><path d="M208 57.38V32a8 8 0 0 0-16 0v25.38A24 24 0 0 0 176 80v42.21l-40-22.85V72a8 8 0 0 0-16 0v27.36l-40 22.85V80a24 24 0 0 0-16-22.62V32a8 8 0 0 0-16 0v25.38A24 24 0 0 0 32 80v136a8 8 0 0 0 8 8h72a8 8 0 0 0 8-8v-40a8 8 0 0 1 16 0v40a8 8 0 0 0 8 8h72a8 8 0 0 0 8-8V80a24 24 0 0 0-16-22.62M200 72a8 8 0 0 1 8 8v24h-16V80a8 8 0 0 1 8-8M56 72a8 8 0 0 1 8 8v24H48V80a8 8 0 0 1 8-8m-8 48h16v88H48Zm80 32a24 24 0 0 0-24 24v32H80v-67.36l48-27.43 48 27.43V208h-24v-32a24 24 0 0 0-24-24m64 56v-88h16v88Z"/></svg>

<svg xmlns="http://www.w3.org/2000/svg" viewBox="0 0 256 256" fill="currentColor"><path d="M216,80v32H184V80a16,16,0,0,1,16-16h0A16,16,0,0,1,216,80ZM72,80A16,16,0,0,0,56,64h0A16,16,0,0,0,40,80v32H72Zm0,56v80h40V176a16,16,0,0,1,16-16h0a16,16,0,0,1,16,16v40h40V136l-56-32Z" opacity="0.2"/><path d="M208,57.38V32a8,8,0,0,0-16,0V57.38A24,24,0,0,0,176,80v42.21L136,99.36V72a8,8,0,0,0-16,0V99.36L80,122.21V80A24,24,0,0,0,64,57.38V32a8,8,0,0,0-16,0V57.38A24,24,0,0,0,32,80V216a8,8,0,0,0,8,8h72a8,8,0,0,0,8-8V176a8,8,0,0,1,16,0v40a8,8,0,0,0,8,8h72a8,8,0,0,0,8-8V80A24,24,0,0,0,208,57.38ZM200,72a8,8,0,0,1,8,8v24H192V80A8,8,0,0,1,200,72ZM56,72a8,8,0,0,1,8,8v24H48V80A8,8,0,0,1,56,72Zm-8,48H64v88H48Zm80,32a24,24,0,0,0-24,24v32H80V140.64l48-27.43,48,27.43V208H152V176A24,24,0,0,0,128,152Zm64,56V120h16v88Z"/></svg>
